Papirus/16x16/apps/remnote.svg

<svg width="16" height="16" version="1.1" xmlns="http://www.w3.org/2000/svg">
 <rect x="0" y="0" width="16" height="16" ry="3.7063355" style="fill:#e4e4e4"/>
 <path d="m7.2846967 2.0000005c-0.2745891 0-0.9121294-7.2e-4 -1.0170407 0.052486-0.092263 0.04663-0.1665993 0.1213578-0.213616 0.2128728-0.053437 0.1040254-0.053696 0.2398466-0.053696 0.5122264v2.5714143l-1.6886184-1.6713657c-0.1555645-0.1555642-0.2907473-0.2885439-0.4027285-0.3246369-0.098493-0.031773-0.2042889-0.031773-0.3027761 0-0.1119831 0.0360932-0.2095048 0.1319355-0.4037188 0.3246369l-1.0122192 1.0040541c-0.1940741 0.1925709-0.290908 0.2894282-0.3272777 0.4004454-0.032005 0.097665-0.03201 0.2026786 0 0.3003502 0.036363 0.1110285 0.1332036 0.2068982 0.3272777 0.3994795l2.1880782 2.2180463h-2.7935249c-0.2745984 0-0.212199 0.0138-0.3170821 0.066784-0.092256 0.046635-0.166607 0.1203731-0.2136142 0.2118918-0.053442 0.1040105-0.053894 0.2408326-0.053894 0.5132072v1.3600842c0 0.272359 5.7e-4 0.409189 0.053894 0.513195 0.047007 0.09153 0.121357 0.165269 0.2136142 0.21189 0.1048833 0.05301 0.042484 0.122955 0.3170821 0.122955h4.2349367l1.5521239-2.2231514c0.165149-0.2698552 0.3259713-0.5411818 0.6281091-0.5657311 0.3021378-0.024545 0.4537711 0.3398903 0.627121 0.5657311l1.552142 2.2231484h4.235908c0.27463 0 0.211671-0.07008 0.316585-0.122956 0.09226-0.04662 0.167588-0.120373 0.214587-0.211889 0.05343-0.103985 0.05389-0.240837 0.05389-0.513195v-1.360083c0-0.2723745-5.68e-4 -0.4091963-0.05389-0.5132072-0.04701-0.091517-0.122324-0.1652546-0.214587-0.2118914-0.104934-0.053053-0.04195-0.066781-0.316585-0.066781h-2.794515l2.188079-2.2180465c0.194052-0.1925813 0.291885-0.2884564 0.328264-0.3994795 0.03201-0.097672 0.03201-0.2026809 0-0.3003503-0.03637-0.1110179-0.134212-0.207875-0.328264-0.4004462l-1.011231-1.0040546c-0.194221-0.1927072-0.291728-0.2885439-0.403719-0.3246369-0.09853-0.031773-0.204301-0.031773-0.302776 0-0.111988 0.036093-0.209512 0.1319297-0.403716 0.3246369l-1.687157 1.6713657v-2.5714171c0-0.2723794-3.595e-4 -0.4082008-0.0537-0.5122263-0.0470125-0.0915149-0.1223257-0.1662411-0.2145844-0.2128725-0.1049112-0.0530051-0.741953-0.0524836-1.0165418-0.0524836zm2.8945723 9.0000135h-4.359496l-1.3786983 1.754914c-0.3028736 0.400697-0.4542743 0.601167-0.4507456 0.768824 0.00336 0.145958 0.071291 0.283268 0.1871532 0.373244 0.1331687 0.103419 0.3858075 0.103004 0.8907138 0.103004h5.8626329c0.504908 0 0.757567 4.8e-4 0.890708-0.103004 0.115851-0.08997 0.185036-0.227286 0.188148-0.373244 0.0037-0.167657-0.147869-0.368127-0.450747-0.768824z" style="fill-rule:evenodd;fill:#506cf7;stop-color:#000000"/>
</svg>

<svg xmlns="http://www.w3.org/2000/svg" width="16" height="16" version="1.1">
 <rect style="fill:#e4e4e4" width="16" height="16" x="0" y="0" rx="3.8" ry="3.8"/>
 <path style="fill:#506cf7" d="M 7.28,2 C 7.01,2 6.37,2 6.27,2.05 6.18,2.1 6.1,2.17 6.05,2.27 6,2.37 6,2.51 6,2.78 V 5.35 L 4.31,3.68 C 4.16,3.52 4.02,3.39 3.91,3.35 3.81,3.32 3.7,3.32 3.61,3.35 3.49,3.39 3.4,3.48 3.2,3.68 L 2.19,4.68 C 2,4.87 1.9,4.97 1.86,5.08 1.83,5.18 1.83,5.28 1.86,5.38 1.9,5.49 2,5.59 2.19,5.78 L 4.38,8 H 1.58 C 1.31,8 1.37,8.01 1.27,8.07 1.18,8.11 1.1,8.19 1.05,8.28 1,8.38 1,8.52 1,8.79 V 10.15 C 1,10.42 1,10.56 1.05,10.66 1.1,10.76 1.18,10.83 1.27,10.88 1.37,10.93 1.31,11 1.58,11 H 5.82 L 7.37,8.78 C 7.54,8.51 7.7,8.24 8,8.21 8.3,8.19 8.45,8.55 8.63,8.78 L 10.18,11 H 14.41 C 14.69,11 14.63,10.93 14.73,10.88 14.82,10.83 14.9,10.76 14.95,10.66 15,10.56 15,10.42 15,10.15 V 8.79 C 15,8.52 15,8.38 14.95,8.28 14.9,8.19 14.82,8.11 14.73,8.07 14.63,8.01 14.69,8 14.41,8 H 11.62 L 13.81,5.78 C 14,5.59 14.1,5.49 14.14,5.38 14.17,5.28 14.17,5.18 14.14,5.08 14.1,4.97 14,4.87 13.81,4.68 L 12.8,3.68 C 12.6,3.48 12.51,3.39 12.39,3.35 12.29,3.32 12.19,3.32 12.09,3.35 11.98,3.39 11.88,3.48 11.69,3.68 L 10,5.35 V 2.78 C 10,2.51 10,2.37 9.95,2.27 9.9,2.17 9.82,2.1 9.73,2.05 9.63,2 8.99,2 8.72,2 Z M 10.18,11 H 5.82 L 4.44,12.76 C 4.14,13.16 3.99,13.36 3.99,13.52 3.99,13.67 4.06,13.81 4.18,13.9 4.31,14 4.56,14 5.07,14 H 10.93 C 11.44,14 11.69,14 11.82,13.9 11.94,13.81 12.01,13.67 12.01,13.52 12.01,13.36 11.86,13.16 11.56,12.76 Z"/>
</svg>
